X: 39942
T: Thompson's
R: jig
M: 6/8
K: Gmajor
|:~B3 GBd|gbg ged|ege dBG|~A3 B2A|
GDD GBd|gbg ged|ege dBd|1 egf gdc:|2 egf g2d||
|:gbg ged|ege dBd|gbg ged|e2a bge|
gbg ged|ege dBA|~B3 dBA|1 GFA GBd:|2 GFA GAc||

